build/category/PensionSolid.svg

<svg xmlns="http://www.w3.org/2000/svg" fill="none" viewBox="0 0 24 24" focusable="false"><path d="M0 0H24V24H0z"/><path fill="#74767B" fill-rule="evenodd" d="M6.311 3.71375C5.97986 3.71375 5.71141 3.98219 5.71141 4.31333L5.71141 7.97818C5.71141 8.42921 5.34578 8.79485 4.89474 8.79485L4.67292 8.79485C3.83528 8.79485 3.15625 9.47388 3.15625 10.3115L3.15625 13.145C3.15625 13.9826 3.83528 14.6616 4.67292 14.6616L4.926 14.6616C5.32546 14.6616 5.66629 14.9506 5.73166 15.3447L6.33333 18.972C6.45911 19.7303 7.11496 20.2863 7.88362 20.2863C8.75152 20.2863 9.45509 19.5827 9.45509 18.7148C9.45509 18.2309 9.94243 17.8956 10.4105 18.0184C11.1743 18.2187 11.9875 18.3267 12.8312 18.3267C13.7822 18.3267 14.6944 18.1895 15.5407 17.9376C16.0424 17.7883 16.583 18.143 16.583 18.6664C16.583 19.5609 17.3082 20.2861 18.2027 20.2861C18.9549 20.2861 19.6101 19.7689 19.7611 19.032C20.4133 15.8501 20.8053 12.4728 20.8232 12.3173C20.8237 12.3131 20.8206 12.3112 20.8164 12.3104C20.8123 12.3097 20.8094 12.3059 20.8099 12.3017C20.8322 12.0997 20.8436 11.895 20.8436 11.6882C20.8436 8.19871 18.0148 5.36989 14.5253 5.36989L9.27662 5.3699C8.93762 5.3699 8.64396 5.15271 8.45722 4.86977C7.99754 4.17329 7.20794 3.71375 6.311 3.71375ZM10.683 7.43885C10.3496 7.43885 10.0795 7.70905 10.0795 8.04235C10.0795 8.37566 10.3497 8.64585 10.683 8.64585L14.8346 8.64585C15.1679 8.64585 15.4381 8.37566 15.4381 8.04235C15.4381 7.70905 15.1679 7.43885 14.8346 7.43885L10.683 7.43885Z"/></svg>

<svg xmlns="http://www.w3.org/2000/svg" fill="none" viewBox="0 0 24 24" focusable="false"><path fill="#74767B" fill-rule="evenodd" d="M6.31 3.71c-.34 0-.6.27-.6.6v3.66c0 .45-.37.82-.82.82h-.22c-.84 0-1.52.68-1.52 1.52v2.83c0 .84.68 1.52 1.52 1.52h.25c.4 0 .74.29.81.68l.6 3.63c.12.76.78 1.31 1.55 1.31.87 0 1.57-.7 1.57-1.57 0-.48.49-.82.96-.7a9.594 9.594 0 0 0 5.13-.08c.5-.15 1.04.21 1.04.73 0 .9.72 1.62 1.62 1.62.75 0 1.41-.52 1.56-1.25.65-3.18 1.04-6.56 1.06-6.72h-.01c0-.01-.01-.01-.01-.01.03-.21.04-.41.04-.62a6.32 6.32 0 0 0-6.32-6.32H9.27c-.34 0-.63-.21-.82-.5a2.58 2.58 0 0 0-2.14-1.15m4.37 3.72a.606.606 0 1 0 0 1.21h4.15c.33 0 .6-.27.6-.6 0-.34-.27-.61-.6-.61z"/></svg>
